assets/img/braze_icons/sliders-03.svg

<svg fill="none" height="24" viewBox="0 0 24 24" width="24" xmlns="http://www.w3.org/2000/svg"><g fill="#801ed7"><path d="m5.5 3h5.0597c.4833 0 .725 0 .8489.08022.1217.07873.182.1644.2151.30547.0338.14375-.0592.40375-.2453.92375-.245.68443-.3784 1.42191-.3784 2.19056s.1334 1.50613.3784 2.19056c.1861.52.2791.78.2453.92375-.0331.14107-.0934.22674-.2151.30547-.1239.08022-.3656.08022-.8489.08022h-5.0597c-1.933 0-3.5-1.567-3.5-3.5s1.567-3.5 3.5-3.5z"/><path d="m17.5 11c2.4853 0 4.5-2.01472 4.5-4.5s-2.0147-4.5-4.5-4.5c-1.0679 0-2.0489.37198-2.8205.99344l-.0082.00656c-1.0195.82498-1.6713 2.08637-1.6713 3.5 0 1.41364.6518 2.67503 1.6713 3.5.7729.6254 1.7571 1 2.8287 1z"/><path d="m6.5 13c1.07165 0 2.0558.3746 2.82867 1 1.01953.825 1.67133 2.0864 1.67133 3.5s-.6518 2.675-1.67133 3.5c-.77287.6254-1.75702 1-2.82867 1-2.48528 0-4.5-2.0147-4.5-4.5s2.01472-4.5 4.5-4.5z"/><path d="m13.4403 14c-.4833 0-.725 0-.8489.0802-.1217.0787-.182.1644-.2151.3055-.0338.1437.0592.4037.2453.9237.245.6845.3784 1.422.3784 2.1906s-.1334 1.5061-.3784 2.1906c-.1861.52-.2791.78-.2453.9237.0331.1411.0934.2268.2151.3055.1239.0802.3656.0802.8489.0802h5.0597c1.933 0 3.5-1.567 3.5-3.5s-1.567-3.5-3.5-3.5z"/></g></svg>

<svg width="24" height="24" viewBox="0 0 24 24" fill="none" xmlns="http://www.w3.org/2000/svg">
<path d="M5.5 3H10.5597C11.043 3 11.2847 3 11.4086 3.08022C11.5303 3.15895 11.5906 3.24462 11.6237 3.38569C11.6575 3.52944 11.5645 3.78944 11.3784 4.30944C11.1334 4.99387 11 5.73135 11 6.5C11 7.26865 11.1334 8.00613 11.3784 8.69056C11.5645 9.21056 11.6575 9.47056 11.6237 9.61431C11.5906 9.75538 11.5303 9.84105 11.4086 9.91978C11.2847 10 11.043 10 10.5597 10H5.5C3.567 10 2 8.433 2 6.5C2 4.567 3.567 3 5.5 3Z" fill="#801ED7"/>
<path d="M17.5 11C19.9853 11 22 8.98528 22 6.5C22 4.01472 19.9853 2 17.5 2C16.4321 2 15.4511 2.37198 14.6795 2.99344L14.6713 3C13.6518 3.82498 13 5.08637 13 6.5C13 7.91364 13.6518 9.17503 14.6713 10C15.4442 10.6254 16.4284 11 17.5 11Z" fill="#801ED7"/>
<path d="M6.5 13C7.57165 13 8.5558 13.3746 9.32867 14C10.3482 14.825 11 16.0864 11 17.5C11 18.9136 10.3482 20.175 9.32867 21C8.5558 21.6254 7.57165 22 6.5 22C4.01472 22 2 19.9853 2 17.5C2 15.0147 4.01472 13 6.5 13Z" fill="#801ED7"/>
<path d="M13.4403 14C12.957 14 12.7153 14 12.5914 14.0802C12.4697 14.1589 12.4094 14.2446 12.3763 14.3857C12.3425 14.5294 12.4355 14.7894 12.6216 15.3094C12.8666 15.9939 13 16.7314 13 17.5C13 18.2686 12.8666 19.0061 12.6216 19.6906C12.4355 20.2106 12.3425 20.4706 12.3763 20.6143C12.4094 20.7554 12.4697 20.8411 12.5914 20.9198C12.7153 21 12.957 21 13.4403 21H18.5C20.433 21 22 19.433 22 17.5C22 15.567 20.433 14 18.5 14H13.4403Z" fill="#801ED7"/>
</svg>
